svgs/light/tombstone-blank.svg

<svg xmlns="http://www.w3.org/2000/svg" viewBox="0 0 448 512"><!--! Font Awesome Pro 6.3.0 by @fontawesome - https://fontawesome.com License - https://fontawesome.com/license (Commercial License) Copyright 2023 Fonticons, Inc. --><path d="M48 448C56.84 448 64 440.8 64 432V192c0-88.22 71.78-160 160-160s160 71.78 160 160v240c0 8.844 7.156 16 16 16s16-7.156 16-16l-.0012-240c0-105.9-86.13-191.1-192-191.1S31.1 86.13 31.1 192L32 432C32 440.8 39.16 448 48 448zM432 480h-416C7.164 480 0 487.2 0 496c0 8.836 7.164 16 16 16h416c8.836 0 16-7.164 16-16C448 487.2 440.8 480 432 480z"/></svg>

<svg xmlns="http://www.w3.org/2000/svg" viewBox="0 0 448 512"><!-- Font Awesome Pro 6.0.0-alpha2 by @fontawesome - https://fontawesome.com License - https://fontawesome.com/license (Commercial License) --><path d="M48 448C56.844 448 64 440.844 64 432V192C64 103.781 135.781 32 224 32S384 103.781 384 192V432C384 440.844 391.156 448 400 448S416 440.844 416 432V192C416 86.125 329.875 0 224 0S32 86.125 32 192V432C32 440.844 39.156 448 48 448ZM432 480H16C7.164 480 0 487.162 0 496C0 504.836 7.164 512 16 512H432C440.836 512 448 504.836 448 496C448 487.162 440.836 480 432 480Z"/></svg>
